public/images/quote.svg

<svg fill="none" height="35" viewBox="0 0 39 35" width="39" xmlns="http://www.w3.org/2000/svg"><path d="m38.4157 34.3h-14.4136c-1.4082-5.1333-2.1124-10.4533-2.1124-15.96 0-5.6 1.284-10.03334 3.8519-13.30001 2.6508-3.35999 6.5442-5.03999 11.68-5.03999v7.84c-4.1418 0-6.2127 2.8467-6.2127 8.54v2.66h7.2068zm-20.9991 0h-14.41364c-1.40822-5.1333-2.112335-10.4533-2.112335-15.96 0-5.6 1.283965-10.03334 3.851905-13.30001 2.65078-3.35999 6.54407-5.03999 11.67997-5.03999v7.84c-4.1418 0-6.2127 2.8467-6.2127 8.54v2.66h7.2068z" fill="#579c3e"/></svg>

<svg width="39" height="35" viewBox="0 0 39 35" fill="none" xmlns="http://www.w3.org/2000/svg">
<path d="M38.4157 34.3H24.0021C22.5939 29.1667 21.8897 23.8467 21.8897 18.34C21.8897 12.74 23.1737 8.30666 25.7416 5.03999C28.3924 1.68 32.2858 0 37.4216 0V7.84C33.2798 7.84 31.2089 10.6867 31.2089 16.38V19.04H38.4157V34.3ZM17.4166 34.3H3.00296C1.59474 29.1667 0.890625 23.8467 0.890625 18.34C0.890625 12.74 2.17459 8.30666 4.74253 5.03999C7.39331 1.68 11.2866 0 16.4225 0V7.84C12.2807 7.84 10.2098 10.6867 10.2098 16.38V19.04H17.4166V34.3Z" fill="#579C3E"/>
</svg>
